svg/u1f689.svg

<svg viewBox="0 0 128 128" xmlns="http://www.w3.org/2000/svg">
  <g>
    <rect height="39.35" fill="#757575" width="70.01" x="53.02" y="84.65"/>
    <polygon points="123.03,124 2.9,124 2.9,84.65 59.77,84.65 " fill="#BDBDBD"/>
    <polygon points="123.03,113.16 77.81,90.76 77.46,89.27 123.03,107.5 " fill="#FFCA28"/>
    <line fill="none" stroke="#616161" stroke-width="3" stroke-miterlimit="10" x1="106.67" x2="116.57" y1="36.66" y2="36.66"/>
    <line fill="none" stroke="#616161" stroke-width="3" stroke-miterlimit="10" x1="106.67" x2="116.57" y1="46.79" y2="46.79"/>
    <rect height="22.91" fill="#37474F" width="22.64" x="86.85" y="30.14"/>
    <line fill="none" stroke="#FFCA28" stroke-miterlimit="10" x1="86.85" x2="109.49" y1="37.77" y2="37.77"/>
    <line fill="none" stroke="#FFCA28" stroke-miterlimit="10" x1="86.85" x2="109.49" y1="45.41" y2="45.41"/>
    <rect height="1.75" fill="#FFFDE7" width="5.69" x="88.24" y="32.75"/>
    <rect height="1.75" fill="#FFFDE7" width="4.29" x="88.94" y="48.68"/>
    <rect height="1.5" fill="#FFFDE7" width="4.29" x="103.34" y="48.5"/>
    <rect height="1.5" fill="#FFFDE7" width="4.29" x="102.37" y="32.87"/>
    <rect height="1.33" fill="#FFFDE7" width="2.47" x="105.16" y="40.92"/>
    <rect height="1.5" fill="#FFFDE7" width="2.47" x="101.14" y="40.84"/>
    <rect height="1.75" fill="#FFFDE7" width="7.89" x="88.24" y="40.72"/>
    <path d="M107.58,30.14c1.05,0,1.9,0.85,1.9,1.9v19.1c0,1.05-0.85,1.9-1.9,1.9H88.75 c-1.05,0-1.9-0.85-1.9-1.9v-19.1c0-1.05,0.85-1.9,1.9-1.9H107.58 M107.58,28.14H88.75c-2.15,0-3.9,1.75-3.9,3.9v19.1 c0,2.15,1.75,3.9,3.9,3.9h18.83c2.15,0,3.9-1.75,3.9-3.9v-19.1C111.49,29.89,109.74,28.14,107.58,28.14L107.58,28.14z" fill="#9E9E9E"/>
    <path d="M119.07,97.79c0,0-2.13,2.71-5,0V29.66c0,0,1.8-1.02,5,0V97.79z" fill="#9E9E9E"/>
    <polygon points="18.13,123.98 13.13,124 18.93,100.63 21.57,102.65 " fill="#E0E0E0"/>
    <polygon points="21.76,124 16.68,124 22.01,101.16 24.65,103.18 " fill="#616161"/>
    <polygon points="74.43,123.98 79.43,124 63.77,100.63 61.13,102.65 " fill="#E0E0E0"/>
    <polygon points="70.25,124 75.32,124 60.14,101.16 57.49,103.18 " fill="#616161"/>
  </g>
  <g>
    <path d="M12.99,100.95c0,0-6.87,5.3-5.82,8.83c1.05,3.52,14.25,8.21,33.3,8.21 c23.78,0,38.06-4.98,39.65-8.89c1.59-3.91-6.97-9.39-6.97-9.39L12.99,100.95z" opacity="0.4" fill="#212121"/>
    <path d="M20.82,100.78l0.63,4.46c0,0,9.86,0.78,22.19,0.78S65.37,105,65.37,105v-5.09L20.82,100.78z" fill="#455A64"/>
    <polygon points="27.86,93.3 59.4,93.3 55.96,108.26 30.74,108.26 " fill="#455A64"/>
    <path d="M20.07,93.85v-0.05c0,0-4.74-0.08-5.1,0.87c-0.35,0.95-1.17,7.92,0.18,14.2 c0.15,0.69,0.54,1.41,1.21,1.41h1.8c0.67,0,1.35-0.35,2.45,1.95c0.94,1.97,2.77,1.63,2.77,0.63s0-19.01,0-19.01H20.07z" fill="#455A64"/>
    <path d="M67.02,93.85v-0.05c0,0,4.74-0.08,5.1,0.87c0.35,0.95,1.17,7.92-0.18,14.2 c-0.15,0.69-0.54,1.41-1.21,1.41h-1.8c-0.67,0-1.35-0.35-2.45,1.95c-0.94,1.97-2.77,1.63-2.77,0.63s0-19.01,0-19.01H67.02z" fill="#455A64"/>
    <path d="M80.22,88.18V41.09c0-2.73-2.21-4.94-4.94-4.94H11.43c-2.73,0-4.94,2.21-4.94,4.94v47.09l-2.6,6.59 c0,0,7.86,6.01,39.35,6.01s39.59-6.01,39.59-6.01L80.22,88.18z" fill="#FFCA28"/>
    <path d="M53.02,17.08H34.43c-0.92,0-1.67-0.75-1.67-1.67v0c0-0.92,0.75-1.67,1.67-1.67h18.59 c0.92,0,1.67,0.75,1.67,1.67v0C54.69,16.34,53.94,17.08,53.02,17.08z" fill="#82AEC0"/>
    <line fill="none" stroke="#82AEC0" stroke-width="3" stroke-miterlimit="10" x1="37.05" x2="35.02" y1="20.66" y2="6.12"/>
    <line fill="none" stroke="#82AEC0" stroke-width="3" stroke-miterlimit="10" x1="50.21" x2="51.88" y1="20.5" y2="5.74"/>
    <path d="M52.75,21.35" fill="none" stroke="#82AEC0" stroke-width="2" stroke-miterlimit="10"/>
    <path d="M57.59,9.64c-0.31,0.26-0.74,0.25-1.04-0.01c-0.85-0.74-2.47-1.74-3.34-2.02 c-0.47-0.15-2.5-0.66-8.94-0.66c-5.86,0-9.87,0.33-10.8,0.65c-0.87,0.3-2.31,1.43-3.08,2.24c-0.3,0.32-0.76,0.38-1.13,0.16l0,0 c-0.48-0.28-0.65-0.93-0.36-1.42c0.75-1.28,2.18-3.48,3.7-4.01c2.18-0.76,10.1-0.8,11.66-0.8c3.36,0,7.78,0.14,9.76,0.79 c1.56,0.51,3.04,2.78,3.74,3.93C58,8.86,57.92,9.36,57.59,9.64L57.59,9.64z" fill="#82AEC0"/>
    <polygon points="6.48,31.2 6.48,56.18 80.22,56.18 80.22,31.76 44.92,24.55 " fill="#EEEEEE"/>
    <path d="M3.85,31.2l2.64,2.58c0,0,13.33-4.42,36.74-4.42s36.99,4.15,36.99,4.15l2.6-2.64 c-1.45-6.29-7.26-11.22-24.39-11.22s-18.78,0-32.58,0S5.29,26.08,3.85,31.2z" fill="#9E9E9E"/>
    <path d="M3.85,31.2c0,0,16.09-5.38,39.38-5.38s39.59,5.06,39.59,5.06c-1.45-6.29-7.29-13.21-24.39-14.36 c-16.44-1.11-18.3-1.11-32.58,0C12.1,17.59,5.3,24.91,3.85,31.2z" fill="#BDBDBD"/>
    <path d="M82.82,100.78c0,0-8.97,3-39.59,3s-39.35-3-39.35-3v-6.01c0,0,18.83,3,39.56,3s39.38-3,39.38-3 V100.78z" fill="#82AEC0"/>
    <circle cx="60.65" cy="84.09" r="4.96" fill="#FFFDE7"/>
    <circle cx="26.02" cy="84.09" r="4.96" fill="#FFFDE7"/>
    <path d="M38.32,20h10.06c2.4,0,4.34,1.94,4.34,4.34v2.97c0,2.4-1.94,4.34-4.34,4.34H38.32 c-2.4,0-4.34-1.94-4.34-4.34v-2.97C33.98,21.94,35.93,20,38.32,20z" fill="#37474F"/>
    <path d="M41.05,22.27h4.59c2.08,0,3.77,1.59,3.77,3.54s-1.69,3.54-3.77,3.54h-4.59 c-2.08,0-3.77-1.49-3.77-3.54S38.96,22.27,41.05,22.27z" fill="#FFCA28"/>
    <path d="M17.88,39.63c17.75-3.3,33.22-3.29,50.9,0c0,10.1,0,20.2,0,30.3c-17.69,3.29-33.15,3.3-50.9,0 C17.88,59.83,17.88,49.73,17.88,39.63z" fill="#BAE2FD"/>
    <path d="M43.33,73.84c-6.21,0-17.92-0.7-23.62-1.11c-1.86-0.13-3.29-1.68-3.29-3.54V41.21 c0-1.69,1.19-3.15,2.85-3.48c3.62-0.71,10.96-1.71,23.57-1.71c12.87,0,20.68,1.04,24.51,1.75c1.68,0.31,2.89,1.78,2.89,3.49V69.2 c0,1.86-1.43,3.4-3.29,3.54C61.25,73.15,49.55,73.84,43.33,73.84z M21.61,68.27c14.58,1.3,28.59,1.18,43.42-0.03 c1.32-0.11,2.31-1.29,2.31-2.62v-21.7c0-1.28-0.93-2.39-2.2-2.6c-15.1-2.49-28.5-2.49-43.6,0c-1.27,0.21-2.2,1.32-2.2,2.6v21.73 C19.33,66.97,20.3,68.16,21.61,68.27z" fill="#37474F"/>
    <path d="M41.5,39.46v0.02c0.71-0.01,1.41-0.02,2.11-0.02H41.5z" fill="#6FBFF0"/>
    <path d="M44.5,39.46h-0.89C43.91,39.46,44.21,39.47,44.5,39.46L44.5,39.46z" fill="#6FBFF0"/>
    <path d="M67.33,43.93c0-1.29-0.93-2.39-2.2-2.6c-7.24-1.19-14.08-1.81-20.91-1.86l0,0 c-0.3,0-0.59-0.01-0.89-0.01c-0.7,0-1.41,0.01-2.11,0.02l0,0c-6.42,0.11-12.88,0.72-19.69,1.84c-1.27,0.21-2.2,1.32-2.2,2.6v3.71 c2.3-0.67,10.59-2.39,22.37-2.55L41.69,69.2c1,0.01,2,0.01,3,0l0.02-24.11c12.18,0.12,20.36,1.38,22.62,1.83V43.93z" opacity="0.66" fill="#82AEC0"/>
    <path d="M34.86,58.85c-1.31-0.31-2.87-0.12-2.87-0.12c-0.96,0-2.36,0.73-2.98,1.55 c-0.42,0.54-1.25,0.59-1.69,0.06c-0.71-0.85-1.75-1.47-2.74-1.47c0,0-2.49-0.49-4.12,0.41c-0.41,0.23-0.79,0.4-1.12,0.56l0,5.82 c0,1.32,1.08,2.51,2.39,2.63c5.92,0.52,11.36,0.79,17.19,0.86c-0.01-1.44-0.07-4.7-0.53-6.71C37.8,59.82,36.17,59.16,34.86,58.85z" opacity="0.66" fill="#82AEC0"/>
    <path d="M65.27,58.87c-0.21-0.05-0.44-0.09-0.67-0.12c-0.01-0.06-0.03-0.12-0.03-0.2 c-0.04-1.14,0.42-1.26,0.61-2.07c0.09-0.39,0.21-0.78,0.21-1.19c0-1.68-1.18-3.05-2.63-3.05c-0.54,0-1.08,0.18-1.49,0.54 c-1.51,1.33-1.14,3.13-0.94,3.7c0.26,0.72,0.96,1.65,1.06,2.44c-0.76,0.24-1.73,0.78-2.45,1.49c-0.55,0.55-1.45,0.52-1.96-0.06 c-0.76-0.88-1.11-1.15-2.39-1.48c0,0-1.14-0.28-2.56-0.14c-1.42,0.14-3.67,1.19-4.3,3.26c-0.42,1.38-0.57,5.77-0.61,7.16 c5.86-0.11,11.76-0.4,17.8-0.89c1.33-0.11,2.42-1.3,2.42-2.63l0-5.78C66.76,59.37,66.01,59.03,65.27,58.87z" opacity="0.66" fill="#82AEC0"/>
  </g>
</svg>

<svg viewBox="0 0 128 128" xmlns="http://www.w3.org/2000/svg">
  <defs/>
  <path d="M53.02,84.65 L123.03,84.65 L123.03,124 L53.02,124 L53.02,84.65 Z" fill="#757575"/>
  <path d="M123.03,124 L2.9,124 L2.9,84.65 L59.77,84.65 Z" fill="#BDBDBD"/>
  <path d="M123.03,113.16 L77.81,90.76 L77.46,89.27 L123.03,107.5 Z" fill="#FFCA28"/>
  <path d="M106.67,35.16 L116.57,35.16 L116.57,38.16 L106.67,38.16 L106.67,35.16 Z" fill="#616161"/>
  <path d="M106.67,45.29 L116.57,45.29 L116.57,48.29 L106.67,48.29 L106.67,45.29 Z" fill="#616161"/>
  <path d="M86.85,30.14 L109.49,30.14 L109.49,53.05 L86.85,53.05 L86.85,30.14 Z" fill="#37474F"/>
  <path d="M86.85,37.27 L109.49,37.27 L109.49,38.27 L86.85,38.27 L86.85,37.27 Z" fill="#FFCA28"/>
  <path d="M86.85,44.91 L109.49,44.91 L109.49,45.91 L86.85,45.91 L86.85,44.91 Z" fill="#FFCA28"/>
  <path d="M88.24,32.75 L93.93,32.75 L93.93,34.5 L88.24,34.5 L88.24,32.75 Z" fill="#FFFDE7"/>
  <path d="M88.94,48.68 L93.23,48.68 L93.23,50.43 L88.94,50.43 L88.94,48.68 Z" fill="#FFFDE7"/>
  <path d="M103.34,48.5 L107.63,48.5 L107.63,50 L103.34,50 L103.34,48.5 Z" fill="#FFFDE7"/>
  <path d="M102.37,32.87 L106.66,32.87 L106.66,34.37 L102.37,34.37 L102.37,32.87 Z" fill="#FFFDE7"/>
  <path d="M105.16,40.92 L107.63,40.92 L107.63,42.25 L105.16,42.25 L105.16,40.92 Z" fill="#FFFDE7"/>
  <path d="M101.14,40.84 L103.61,40.84 L103.61,42.34 L101.14,42.34 L101.14,40.84 Z" fill="#FFFDE7"/>
  <path d="M88.24,40.72 L96.13,40.72 L96.13,42.47 L88.24,42.47 L88.24,40.72 Z" fill="#FFFDE7"/>
  <path d="M107.58,30.14 C108.63,30.14 109.48,30.99 109.48,32.04 L109.48,51.14 C109.48,52.19 108.63,53.04 107.58,53.04 L88.75,53.04 C87.7,53.04 86.85,52.19 86.85,51.14 L86.85,32.04 C86.85,30.99 87.7,30.14 88.75,30.14 L107.58,30.14 M107.58,28.14 L88.75,28.14 C86.6,28.14 84.85,29.89 84.85,32.04 L84.85,51.14 C84.85,53.29 86.6,55.04 88.75,55.04 L107.58,55.04 C109.73,55.04 111.48,53.29 111.48,51.14 L111.48,32.04 C111.49,29.89 109.74,28.14 107.58,28.14 L107.58,28.14 Z" fill="#9E9E9E"/>
  <path d="M119.07,97.79 C119.07,97.79 116.94,100.5 114.07,97.79 L114.07,29.66 C114.07,29.66 115.87,28.64 119.07,29.66 L119.07,97.79 Z" fill="#9E9E9E"/>
  <path d="M18.13,123.98 L13.13,124 L18.93,100.63 L21.57,102.65 Z" fill="#E0E0E0"/>
  <path d="M21.76,124 L16.68,124 L22.01,101.16 L24.65,103.18 Z" fill="#616161"/>
  <path d="M74.43,123.98 L79.43,124 L63.77,100.63 L61.13,102.65 Z" fill="#E0E0E0"/>
  <path d="M70.25,124 L75.32,124 L60.14,101.16 L57.49,103.18 Z" fill="#616161"/>
  <path d="M12.99,100.95 C12.99,100.95 6.12,106.25 7.17,109.78 C8.22,113.3 21.42,117.99 40.47,117.99 C64.25,117.99 78.53,113.01 80.12,109.1 C81.71,105.19 73.15,99.71 73.15,99.71 L12.99,100.95 Z" fill="#212121" opacity="0.4"/>
  <path d="M20.82,100.78 L21.45,105.24 C21.45,105.24 31.31,106.02 43.64,106.02 C55.97,106.02 65.37,105 65.37,105 L65.37,99.91 L20.82,100.78 Z" fill="#455A64"/>
  <path d="M27.86,93.3 L59.4,93.3 L55.96,108.26 L30.74,108.26 Z" fill="#455A64"/>
  <path d="M20.07,93.85 L20.07,93.8 C20.07,93.8 15.33,93.72 14.97,94.67 C14.62,95.62 13.8,102.59 15.15,108.87 C15.3,109.56 15.69,110.28 16.36,110.28 L18.16,110.28 C18.83,110.28 19.51,109.93 20.61,112.23 C21.55,114.2 23.38,113.86 23.38,112.86 C23.38,111.86 23.38,93.85 23.38,93.85 L20.07,93.85 Z" fill="#455A64"/>
  <path d="M67.02,93.85 L67.02,93.8 C67.02,93.8 71.76,93.72 72.12,94.67 C72.47,95.62 73.29,102.59 71.94,108.87 C71.79,109.56 71.4,110.28 70.73,110.28 L68.93,110.28 C68.26,110.28 67.58,109.93 66.48,112.23 C65.54,114.2 63.71,113.86 63.71,112.86 C63.71,111.86 63.71,93.85 63.71,93.85 L67.02,93.85 Z" fill="#455A64"/>
  <path d="M80.22,88.18 L80.22,41.09 C80.22,38.36 78.01,36.15 75.28,36.15 L11.43,36.15 C8.7,36.15 6.49,38.36 6.49,41.09 L6.49,88.18 L3.89,94.77 C3.89,94.77 11.75,100.78 43.24,100.78 C74.73,100.78 82.83,94.77 82.83,94.77 L80.22,88.18 Z" fill="#FFCA28"/>
  <path d="M53.02,17.08 L34.43,17.08 C33.51,17.08 32.76,16.33 32.76,15.41 L32.76,15.41 C32.76,14.49 33.51,13.74 34.43,13.74 L53.02,13.74 C53.94,13.74 54.69,14.49 54.69,15.41 L54.69,15.41 C54.69,16.34 53.94,17.08 53.02,17.08 Z" fill="#82AEC0"/>
  <path d="M35.564,20.867 L33.534,6.327 L36.506,5.913 L38.536,20.453 L35.564,20.867 Z" fill="#82AEC0"/>
  <path d="M48.72,20.331 L50.39,5.571 L53.37,5.909 L51.7,20.669 L48.72,20.331 Z" fill="#82AEC0"/>
  <path d="M57.59,9.64 C57.28,9.9 56.85,9.89 56.55,9.63 C55.7,8.89 54.08,7.89 53.21,7.61 C52.74,7.46 50.71,6.95 44.27,6.95 C38.41,6.95 34.4,7.28 33.47,7.6 C32.6,7.9 31.16,9.03 30.39,9.84 C30.09,10.16 29.63,10.22 29.26,10 L29.26,10 C28.78,9.72 28.61,9.07 28.9,8.58 C29.65,7.3 31.08,5.1 32.6,4.57 C34.78,3.81 42.7,3.77 44.26,3.77 C47.62,3.77 52.04,3.91 54.02,4.56 C55.58,5.07 57.06,7.34 57.76,8.49 C58,8.86 57.92,9.36 57.59,9.64 L57.59,9.64 Z" fill="#82AEC0"/>
  <path d="M6.48,31.2 L6.48,56.18 L80.22,56.18 L80.22,31.76 L44.92,24.55 Z" fill="#EEEEEE"/>
  <path d="M3.85,31.2 L6.49,33.78 C6.49,33.78 19.82,29.36 43.23,29.36 C66.64,29.36 80.22,33.51 80.22,33.51 L82.82,30.87 C81.37,24.58 75.56,19.65 58.43,19.65 C41.3,19.65 39.65,19.65 25.85,19.65 C12.05,19.65 5.29,26.08 3.85,31.2 Z" fill="#9E9E9E"/>
  <path d="M3.85,31.2 C3.85,31.2 19.94,25.82 43.23,25.82 C66.52,25.82 82.82,30.88 82.82,30.88 C81.37,24.59 75.53,17.67 58.43,16.52 C41.99,15.41 40.13,15.41 25.85,16.52 C12.1,17.59 5.3,24.91 3.85,31.2 Z" fill="#BDBDBD"/>
  <path d="M82.82,100.78 C82.82,100.78 73.85,103.78 43.23,103.78 C12.61,103.78 3.88,100.78 3.88,100.78 L3.88,94.77 C3.88,94.77 22.71,97.77 43.44,97.77 C64.17,97.77 82.82,94.77 82.82,94.77 L82.82,100.78 Z" fill="#82AEC0"/>
  <path d="M65.61,84.09 A4.96 4.96 0 1 1 55.69,84.09 A4.96 4.96 0 1 1 65.61,84.09 Z" fill="#FFFDE7"/>
  <path d="M30.98,84.09 A4.96 4.96 0 1 1 21.06,84.09 A4.96 4.96 0 1 1 30.98,84.09 Z" fill="#FFFDE7"/>
  <path d="M38.32,20 L48.38,20 C50.78,20 52.72,21.94 52.72,24.34 L52.72,27.31 C52.72,29.71 50.78,31.65 48.38,31.65 L38.32,31.65 C35.92,31.65 33.98,29.71 33.98,27.31 L33.98,24.34 C33.98,21.94 35.93,20 38.32,20 Z" fill="#37474F"/>
  <path d="M41.05,22.27 L45.64,22.27 C47.72,22.27 49.41,23.86 49.41,25.81 C49.41,27.76 47.72,29.35 45.64,29.35 L41.05,29.35 C38.97,29.35 37.28,27.86 37.28,25.81 C37.28,23.76 38.96,22.27 41.05,22.27 Z" fill="#FFCA28"/>
  <path d="M17.88,39.63 C35.63,36.33 51.1,36.34 68.78,39.63 C68.78,49.73 68.78,59.83 68.78,69.93 C51.09,73.22 35.63,73.23 17.88,69.93 C17.88,59.83 17.88,49.73 17.88,39.63 Z" fill="#BAE2FD"/>
  <path d="M43.33,73.84 C37.12,73.84 25.41,73.14 19.71,72.73 C17.85,72.6 16.42,71.05 16.42,69.19 L16.42,41.21 C16.42,39.52 17.61,38.06 19.27,37.73 C22.89,37.02 30.23,36.02 42.84,36.02 C55.71,36.02 63.52,37.06 67.35,37.77 C69.03,38.08 70.24,39.55 70.24,41.26 L70.24,69.2 C70.24,71.06 68.81,72.6 66.95,72.74 C61.25,73.15 49.55,73.84 43.33,73.84 Z M21.61,68.27 C36.19,69.57 50.2,69.45 65.03,68.24 C66.35,68.13 67.34,66.95 67.34,65.62 L67.34,43.92 C67.34,42.64 66.41,41.53 65.14,41.32 C50.04,38.83 36.64,38.83 21.54,41.32 C20.27,41.53 19.34,42.64 19.34,43.92 L19.34,65.65 C19.33,66.97 20.3,68.16 21.61,68.27 Z" fill="#37474F"/>
  <path d="M41.5,39.46 L41.5,39.48 C42.21,39.47 42.91,39.46 43.61,39.46 L41.5,39.46 Z" fill="#6FBFF0"/>
  <path d="M44.5,39.46 L43.61,39.46 C43.91,39.46 44.21,39.47 44.5,39.46 L44.5,39.46 Z" fill="#6FBFF0"/>
  <path d="M67.33,43.93 C67.33,42.64 66.4,41.54 65.13,41.33 C57.89,40.14 51.05,39.52 44.22,39.47 L44.22,39.47 C43.92,39.47 43.63,39.46 43.33,39.46 C42.63,39.46 41.92,39.47 41.22,39.48 L41.22,39.48 C34.8,39.59 28.34,40.2 21.53,41.32 C20.26,41.53 19.33,42.64 19.33,43.92 L19.33,47.63 C21.63,46.96 29.92,45.24 41.7,45.08 L41.69,69.2 C42.69,69.21 43.69,69.21 44.69,69.2 L44.71,45.09 C56.89,45.21 65.07,46.47 67.33,46.92 L67.33,43.93 Z" fill="#82AEC0" opacity="0.66"/>
  <path d="M34.86,58.85 C33.55,58.54 31.99,58.73 31.99,58.73 C31.03,58.73 29.63,59.46 29.01,60.28 C28.59,60.82 27.76,60.87 27.32,60.34 C26.61,59.49 25.57,58.87 24.58,58.87 C24.58,58.87 22.09,58.38 20.46,59.28 C20.05,59.51 19.67,59.68 19.34,59.84 L19.34,65.66 C19.34,66.98 20.42,68.17 21.73,68.29 C27.65,68.81 33.09,69.08 38.92,69.15 C38.91,67.71 38.85,64.45 38.39,62.44 C37.8,59.82 36.17,59.16 34.86,58.85 Z" fill="#82AEC0" opacity="0.66"/>
  <path d="M65.27,58.87 C65.06,58.82 64.83,58.78 64.6,58.75 C64.59,58.69 64.57,58.63 64.57,58.55 C64.53,57.41 64.99,57.29 65.18,56.48 C65.27,56.09 65.39,55.7 65.39,55.29 C65.39,53.61 64.21,52.24 62.76,52.24 C62.22,52.24 61.68,52.42 61.27,52.78 C59.76,54.11 60.13,55.91 60.33,56.48 C60.59,57.2 61.29,58.13 61.39,58.92 C60.63,59.16 59.66,59.7 58.94,60.41 C58.39,60.96 57.49,60.93 56.98,60.35 C56.22,59.47 55.87,59.2 54.59,58.87 C54.59,58.87 53.45,58.59 52.03,58.73 C50.61,58.87 48.36,59.92 47.73,61.99 C47.31,63.37 47.16,67.76 47.12,69.15 C52.98,69.04 58.88,68.75 64.92,68.26 C66.25,68.15 67.34,66.96 67.34,65.63 L67.34,59.85 C66.76,59.37 66.01,59.03 65.27,58.87 Z" fill="#82AEC0" opacity="0.66"/>
</svg>
